svgs/meteor.svg

<svg width="192" height="192" viewBox="0 0 192 192" fill="none" xmlns="http://www.w3.org/2000/svg">
<path d="M140.838 123.673C158.558 122.02 171.548 106.682 169.851 89.4155C168.154 72.1489 152.414 59.4919 134.694 61.1452M140.838 123.673C126.868 124.977 114.128 117.386 108.53 105.654M140.838 123.673L62.3099 131M134.694 61.1452C120.723 62.4486 109.694 72.2573 106.482 84.8111M134.694 61.1452L22 71.6598M106.482 84.8111C105.62 88.181 105.322 91.7487 105.681 95.4028C106.04 99.0569 107.028 102.505 108.53 105.654M106.482 84.8111L40.7719 90.9421M108.53 105.654L27.7489 113.191" stroke="black" stroke-width="12" stroke-linecap="round" stroke-linejoin="round"/>
</svg>

<svg xmlns="http://www.w3.org/2000/svg" width="192" height="192" fill="none" viewBox="0 0 192 192"><path stroke="#000" stroke-linecap="round" stroke-linejoin="round" stroke-width="12" d="M140.838 123.673c17.72-1.653 30.71-16.991 29.013-34.258-1.697-17.266-17.437-29.923-35.157-28.27m6.144 62.528c-13.97 1.304-26.71-6.287-32.308-18.019m32.308 18.019L62.31 131m72.384-69.855c-13.971 1.304-25 11.112-28.212 23.666m28.212-23.666L22 71.66m84.482 13.151a30.6 30.6 0 0 0-.801 10.592 30.7 30.7 0 0 0 2.849 10.251m-2.048-20.843-65.71 6.131m67.758 14.712-80.781 7.537"/></svg>
